X: 106
T:The Lone Bush
R:Hornpipe
C:Ed Reavy
M:4/4
L:1/8
Z:Joe Reavy
N:There was a bush that bloomed
N:alone outside Ed's farmhouse.
N:Many times he has wondered about
N:that bush and why it survived
N:when all around it perished.
N:It has meant many things to
N:him and has always been
N:a life-sustaining thought".
K:G
DF | GcBd (3CBC dB | GABd c2 Bc | dgfa gfdc | BABG FDCD |
GcBd (3cBc dB | GABd c2 Bc | dgfd cAfA | G2 AFG2 :|
Bd | gdBd =fcAc | gdBd f2 (3de^f | gb=fa g^fde | (3fga ge fdcA |
GcBd (3cBc dB | GABd c2 Bc | dgfd cAFA |1 G2 AF G2 :|2 G2 g2 G2 |]

